!!!!SEGMENT: pl-wtm--r-1477_stefani-jozef--pod-strychem.krn
!!!cenid: 18xx:2222
!!!COM: Stefani, Józef
!!!COM-rismid: pe30024097
!!!CDT: 1800/04/16-1876/03/19
!!!CNT: Polish
!!!OTL: Pod strychem
!!!PDT:
!!!AGN:
!!!SMS-siglum: PL-Wtm
!!!SMS-shelfmark: R 1477
!!!SMS-shelfwork: W
!!!SMS-variant:
!!!SMS-altvar:
!!!NIFC-rismid: 1001122065
!!!URL-scan: http://repozytorium.nifc.pl/skany/pl-wtm-nut--r1477
!!!ONB-nifc:
!!!OMD: Allegretto.
**kern	**kern	**dynam	**kern	**text	**text
*part2	*part2	*part2	*part1	*part1	*part1
*staff3	*staff2	*	*staff1	*staff1	*staff1
*>[A,B,B]	*>[A,B,B]	*>[A,B,B]	*>[A,B,B]	*>[A,B,B]	*>[A,B,B]
*>A	*>A	*>A	*>A	*>A	*>A
*Iempty	*Iforte	*	*Iempty	*	*
*	*I"Fortepian	*	*I"Śpiew	*	*
*clefF4	*clefG2	*	*clefG2	*	*
*k[b-e-a-]	*k[b-e-a-]	*	*k[b-e-a-]	*	*
*E-:	*E-:	*	*E-:	*	*
*M2/4	*M2/4	*	*M2/4	*	*
*all\right	*all\right	*	*all\right	*	*
=1	=1	=1	=1	=1	=1
*^	*	*	*	*	*
!	!	!	!LO:DY:rj	!	!	!
2B-/	4E-\	(>4g 4e-/	pp	2r	.	.
.	(>4D\	4b- 4f/	.	.	.	.
=2	=2	=2	=2	=2	=2	=2
2B-/	4E-\)	4g 4e-/	.	2r	.	.
.	4D\	4b- 4f/	.	.	.	.
*v	*v	*	*	*	*	*
=3	=3	=3	=3	=3	=3
4c 4C\	4ee- 4e-/)	.	2r	.	.
4c 4F\	4an 4e-/	.	.	.	.
=4	=4	=4	=4	=4	=4
*	*^	*	*	*	*
4.d 4.B-\	4cc/	4.f\	.	2r	.	.
.	8b-/	.	.	.	.	.
8r	8r	8r	.	.	.	.
*	*v	*v	*	*	*	*
=5	=5	=5	=5	=5	=5
*^	*	*	*	*	*
*	*2\right	*	*	*	*	*
16BB-/LL	2BB-\	(4a- 4f/	.	2r	.	.
16B-/	.	.	.	.	.	.
16B-/	.	.	.	.	.	.
16B-/JJ	.	.	.	.	.	.
4B-/	.	8ffL 8a-/)	.	.	.	.
.	.	8a-J 8f'/	.	.	.	.
=6	=6	=6	=6	=6	=6	=6
16BB-/LL	2BB-\	(4g 4e-/	.	2r	.	.
16B-/	.	.	.	.	.	.
16B-/	.	.	.	.	.	.
16B-/JJ	.	.	.	.	.	.
4B-/	.	8ee-L 8g/)	.	.	.	.
.	.	8gJ 8e-'/	.	.	.	.
*v	*v	*	*	*	*	*
!!LO:LB:g=original
=7	=7	=7	=7	=7	=7
4c 4C\	8anL 8e-'/	.	2r	.	.
.	(8gg/	.	.	.	.
4e- 4c 4F\	8ff/)	.	.	.	.
.	8a'/J	.	.	.	.
=8	=8	=8	=8	=8	=8
8d 8B-\	8b-/	.	2r	.	.
8r	8r	.	.	.	.
!	!	!LO:DY:rj	!	!	!
8B- 8BB-\	8bb- 8dd 8b-\	f	.	.	.
!	!LO:TX:t=P:problem:znak [segno] na kresce taktowej	!	!LO:TX:t=P:problem:znak [segno] na kresce taktowej	!	!
!	!LO:TX:a:t=[segno]	!	!LO:TX:a:t=[segno]	!	!
8r	8r	.	.	.	.
=9||	=9||	=9||	=9||	=9||	=9||
*>B	*>B	*>B	*>B	*>B	*>B
*^	*	*	*	*	*
!	!	!	!LO:DY:rj	!	!	!
16E-/LL	2E-\	8.b-L 8.g/	p	8.b-\	1.)_Po	2.)_Lecz
16B-/	.	.	.	.	.	.
16B-/	.	.	.	.	.	.
16B-/JJ	.	16ee-Jk 16g/	.	16ee-\	nad	choć
4B-/	.	8b-L 8g/	.	8b-\	sza-	w_pra-
.	.	8a-J 8f/	.	8a-/	-rą,	-cy
=10	=10	=10	=10	=10	=10	=10
16E-/LL	2E-\	8.gL 8.e-/	.	8.g/	po-	żyć
16B-/	.	.	.	.	.	.
16B-/	.	.	.	.	.	.
16B-/JJ	.	16f#XJk 16d/	.	16f#X/	-nad	tak
4B-/	.	8gL 8e-/	.	8g/	wis-	znoj-
.	.	8e-/J	.	8e-/	-łą,	-nie
=11	=11	=11	=11	=11	=11	=11
*	*^	*	*	*	*	*
16BB-/LL	2BB-\	4BB-\	8.fL 8.d/	.	8.f/	Zło-	Dziew-
16B-/	.	.	.	.	.	.	.
16B-/	.	.	.	.	.	.	.
16B-/JJ	.	.	16gJk 16e-/	.	16g/	-te	-cze
4B-/	.	4ryy	8a-L 8f/	.	8a-/	słon-	pa-
.	.	.	8ccJ 8a-/	.	8cc\	-ko	-trzy
*	*v	*v	*	*	*	*	*
!!LO:LB:g=original
=12	=12	=12	=12	=12	=12	=12
16E-/LL	2E-\	8.b-L 8.g/	.	8.b-/	jas-	w_świat
16B-/	.	.	.	.	.	.
16B-/	.	.	.	.	.	.
16c/JJ	.	16anJk 16f#X/	.	16an/	-no	spo-
4B-/	.	8b-L 8g/	.	8b-/	bły-	-koj-
.	.	8gJ 8e-/	.	8g/	-sło	-nie
=13	=13	=13	=13	=13	=13	=13
16BB-/LL	2BB-\	8.fL 8.d/	.	8.f/	I	I
16B-/	.	.	.	.	.	.
16B-/	.	.	.	.	.	.
16B-/JJ	.	16gJk 16e-/	.	16g/	jak	tak
4B-/	.	8a-L 8f/	.	8a-/	pta-	śmie-
.	.	8fJ 8d/	.	8f/	-sze	-je
=14	=14	=14	=14	=14	=14	=14
16E-/LL	2E-\	8.gL 8.e-/	.	8.g/	w_gnia-	się
16B-/	.	.	.	.	.	.
16B-/	.	.	.	.	.	.
16B-/JJ	.	16a-Jk 16f/	.	16a-/	-zku	i
4B-/	.	8b-L 8g/	.	8b-/	ci-	śpie-
.	.	8gJ 8e-/	.	8g/	-chem	-wa
=15	=15	=15	=15	=15	=15	=15
16AA-/LL	2AA-\	8.ccL 8.a-\	.	8.cc\	Roz-	Że
16A-/	.	.	.	.	.	.
16A-/	.	.	.	.	.	.
16A-/JJ	.	16ee-Jk 16cc\	.	16ee-\	-bu-	aż
4A-/	.	8ddL 8b-\	.	8dd\	-dzi-	czyż
.	.	8ccJ 8a-\	.	8cc\	-ło	się
!!LO:LB:g=original
=16	=16	=16	=16	=16	=16	=16
16BB-/LL	2BB-\	8.b-L 8.g/	.	8.b-/	się	w_klat-
16B-/	.	.	.	.	.	.
16B-/	.	.	.	.	.	.
16c/JJ	.	16anJk 16f#X/	.	16an/	pod	-ce
4B-/	.	8b-L 8g/	.	8b-/	stry-	gnie-
.	.	8gJ 8e-/	.	8g/	-chem	-wa
=17	=17	=17	=17	=17	=17	=17
16BB-/LL	2BB-\	8.a-L 8.f/	.	8.a-/	mło-	Aż
16B-/	.	.	.	.	.	.
16B-/	.	.	.	.	.	.
16B-/JJ	.	16gJk 16e-/	.	16g/	-de	o-
4B-/	.	8fL 8d/	.	8f/	Dziew-	-kien-
.	.	8b-J 8d/	.	8b-/	-cze	-ko
*v	*v	*	*	*	*	*
=18	=18	=18	=18	=18	=18
4.c 4.C\	4g 4e-/	.	(4g/	z_snów	drzy
.	8ee- 8g 8e-/	.	8ee-\)	.	.
8r	8r	.	8r	.	.
=19	=19	=19	=19	=19	=19
8AA- 8AAA-/	8r	.	8.dd\	mło-	Aż
8r	8f 8c 8A-/	.	.	.	.
.	.	.	16cc\	-de	o-
8BB- 8BBB-/	8r	.	8b-\	Dziew-	-kien-
8rFF	8e- 8B- 8A-< 8F</	.	8d/	-cze	-ko
!!LO:PB:g=original
=20	=20	=20	=20	=20	=20
8E- 8EE-\	8e- 8B- 8G</	.	4e-/	z_snów,	drzy,
!	!	!LO:DY:rj	!	!	!
8E- 8EE-\	8ee- 8g 8e-/	f	.	.	.
4r	4r	.	8r	.	.
.	.	.	16en/	Po	Bo
.	.	.	16f/	pa-	wie
=21	=21	=21	=21	=21	=21
4.BB- 4.BBB-\	16r	.	8dd\	-cie-	o-
.	16dLL 16B- 16F</	.	.	.	.
.	16d 16B- 16F</	.	4b-\	-rzu	-na
.	16dJJ 16B- 16F</	.	.	.	.
.	8d 8B- 8F</	.	.	.	.
8r	8r	.	16an\	włos-	że
.	.	.	16b-\	-ki	wy-
=22	=22	=22	=22	=22	=22
4.BB- 4.BBB-\	16r	.	8cc\	pło-	-so-
.	16e-LL 16An 16F</	.	.	.	.
.	16e- 16A 16F</	.	4f/	-we	-ko
.	16e-JJ 16A 16F</	.	.	.	.
.	8e- 8A 8F</	.	.	.	.
8r	8r	.	16en/	U-	Nad
.	.	.	16f/	-cze-	nią
=23	=23	=23	=23	=23	=23
4.BB- 4.BBB-\	16r	.	8ee-X\	-saw-	czu-
.	16e-LL 16An 16F</	.	.	.	.
.	16e- 16A 16F</	.	4cc\	-szy	-wa
.	16e-JJ 16A 16F</	.	.	.	.
.	8e- 8A 8F</	.	.	.	.
8r	8r	.	16bn\	wnet	Bo-
.	.	.	16cc\	w_lil-	-że
!!LO:LB:g=original
=24	=24	=24	=24	=24	=24
4.BB- 4.BBB-\	16r	.	8ff\	-jo-	o-
.	16dLL 16B- 16F</	.	.	.	.
.	16d 16B- 16F</	.	4dd\	-we	-ko
.	16dJJ 16B- 16F</	.	.	.	.
.	8d 8B- 8F</	.	.	.	.
8r	8r	.	16b-/	W_swe	I
.	.	.	16a-X/	pa-	do
=25	=25	=25	=25	=25	=25
8BB- 8BBB-\	16r	.	8.ff\	-lusz-	Pan-
.	16dLL 16B- 16A-< 16F</	.	.	.	.
8rEE	16d 16B- 16A-< 16F</	.	.	.	.
.	16dJJ 16B- 16A-< 16F</	.	16ee-\	-ki	-ny
8BB- 8BBB-\	16r	.	(16dd\LL	i-	Czę-
.	16dLL 16B- 16A-< 16F</	.	16cc\JJ)	.	.
8rEE	16d 16B- 16A-< 16F</	.	(16b-/LL	-głę	-sto-
.	16dJJ 16B- 16A-< 16F</	.	16a-/JJ)	.	.
=26	=26	=26	=26	=26	=26
8E- 8EE-\	16r	.	8g/	wzię-	-chow-
.	16e-LL 16B- 16G</	.	.	.	.
8rFF	16e- 16B- 16G</	.	4b-/	-ło	-skiej
.	16e-JJ 16B- 16G</	.	.	.	.
8E- 8EE-\	16r	.	.	.	.
.	16e-LL 16B- 16G</	.	.	.	.
8rFF	16e- 16B- 16G</	.	16an/	I	Że
.	16e-JJ 16B- 16G</	.	16g/	na	nieść
=27	=27	=27	=27	=27	=27
8F 8FF\	16r	.	8f/	czar-	mo-
.	16e-LL 16c 16An</	.	.	.	.
8rFF	16e- 16c 16A</	.	8ff\	.	.
.	16e-JJ 16c 16A</	.	.	-ny	-ze
8F 8FF\	16r	.	8.gg\	chleb	swo-
.	16e-LL 16c 16A</	.	.	.	.
8rFF	16e- 16c 16A</	.	.	.	.
.	16e-JJ 16A</	.	16ff\	po-	-je
!!LO:LB:g=original
=28	=28	=28	=28	=28	=28
4.BB- 4.BBB-\	16r	.	8dd\	-czę-	tros-
.	16dLL 16B- 16F</	.	.	.	.
.	16d 16B- 16F</	.	4b-\	-ło	-ki
.	16dJJ 16B- 16F</	.	.	.	.
.	8d 8B- 8F</	.	.	.	.
16r	16r	.	16r	.	.
16B-\	16b-\	.	16b-\	Pra-	I
=29	=29	=29	=29	=29	=29
8e-\	8ee-\	.	8ee-\	-co-	swe
4F\	4f^/	.	4f/	-wać	krwa-
16c-X\LL	(16cc-X\LL	.	(16cc-X\LL	nią	-we
16B-\JJ	16b-\JJ)	.	16b-\JJ)	.	.
=30	=30	=30	=30	=30	=30
8E-/L	8e-/L	.	4e-/	znów,	łzy.
!	!	!LO:DY:rj	!	!	!
8E-J 8EE-/	8ee-J 8g 8e-/	f	.	.	.
4r	8r	.	4r	.	.
.	(8b-\	.	.	.	.
=31	=31	=31	=31	=31	=31
16BB-'\LL	8bb-\L)	.	2r	.	.
16B-'\	.	.	.	.	.
16A- 16D'\	(32bb-\LL	.	.	.	.
.	32aan\	.	.	.	.
16B-'\JJ	32aa-X\	.	.	.	.
.	32gg\JJJ)	.	.	.	.
*rep	*	*	*	*	*
16BB-'\LL	(8gg-X\L	.	.	.	.
16B-'\	.	.	.	.	.
16A- 16D'\	8ff\J)	.	.	.	.
16B-'\JJ	.	.	.	.	.
*Xrep	*	*	*	*	*
!!LO:LB:g=original
=32	=32	=32	=32	=32	=32
16E-'\LL	8bb-|\L	.	2r	.	.
16B-'\	.	.	.	.	.
16G'\	(32bb-\LL	.	.	.	.
.	32aan\	.	.	.	.
16B-'\JJ	32aa-X\)	.	.	.	.
.	32gg\JJJ	.	.	.	.
*rep	*	*	*	*	*
16E-'\LL	(8ff\L	.	.	.	.
16B-'\	.	.	.	.	.
16G'\	8ee-\J)	.	.	.	.
16B-'\JJ	.	.	.	.	.
*Xrep	*	*	*	*	*
=33	=33	=33	=33	=33	=33
16AA-'\LL	8cc'\L	.	2r	.	.
16A-'\	.	.	.	.	.
16E-'\	(32cc\LL	.	.	.	.
.	32dd\	.	.	.	.
16A-'\JJ	32ee-\	.	.	.	.
.	32ff\JJJ)	.	.	.	.
16BB-'\LL	8b-'\L	.	.	.	.
16G'\	.	.	.	.	.
16E-'\	(32b-\LL	.	.	.	.
.	32cc\	.	.	.	.
16G'\JJ	32dd\	.	.	.	.
.	32ee-\JJJ)	.	.	.	.
=34	=34	=34	=34	=34	=34
*^	*	*	*	*	*
16BB-'\LL	4ryy	8dd'\L	.	2r	.	.
16B-'\	.	.	.	.	.	.
16A- 16F'\	.	(32dd\LL	.	.	.	.
.	.	32ccc\	.	.	.	.
16B-'\JJ	.	32bb-\	.	.	.	.
.	.	32dd\JJJ)	.	.	.	.
!	!	!LO:TX:t=P:problem:znak [segno] na kresce taktowej	!	!LO:TX:t=P:problem:znak [segno] na kresce taktowej	!	!
!	!	!LO:TX:a:t=[segno]	!	!LO:TX:a:t=[segno]	!	!
4G/	4E-\	4ee-\	.	.	.	.
*v	*v	*	*	*	*	*
==	==	==	==	==	==
*-	*-	*-	*-	*-	*-
!!!system-decoration: <s1>{(s2,s3)}
!!!RDF**kern: > = above
!!!RDF**kern: < = below
!!!RDF**kern: | = vertical stroke
!!!AIN: 2 empty
!!!ENC: Andrzej Kubiczek
!!!END: 2021-06-05
!!!ENC: Berenika Jozajtis
!!!END: 2021-05-20
